X:5
T:Tridal a ra va c'halon
T:(Mor Fawr Wyt Ti!)
M:4/4
L:1/8
Q:1/4=48
%%staves [(S A) (T B)]
K:A
% Breton words on a Wales choral
V:S
EEE	  |C3E	   EEFF        |(D2F3)	  FFF	 |E3C   EEDD		 |C4   z:|
w:Ka-na a |rin, ka-na a rin be-|pred,* rag an Ao-|trou en-eus va zan-tel-|let.
w:Eñ eo va|nerz, eñ eo i-vez va|Zad,*    eñ eo va|han, ka-na a rin e     |hloar.
V:A
CCC	  |A,3A,   B,CA,A,     |(B,2A,3)  DDB,   |C3A,  B,A,A,G,	 |A,4  z:|
V:T
A,A,A,	  |E,3E,   G,A,F,F,    |(F,2F,3)  A,A,G, |A,3A, G,A,F,E,	 |E,4  z:|
V:B
A,,A,,A,, |A,,3C,  B,,A,,D,D,  |(B,,2D,3) D,D,B,,|E,3F, E,C,B,,E,,	 |A,,4 z:|

% --- organ ---

